!!!COM: Music21
!!!OTL: slide_Maggie-Shanleys
!!!OMV: slide_Maggie-Shanleys
**kern
*clefG2
*k[f#c#g#]
*A:
*M12/8
=1
4a
8b
4cc#
8ee
8ddL
8cc#
8bJ
4.a
=
4a
8b
4cc#
8ee
4.ff#
4.ee
=
4a
8b
4cc#
8ee
8ddL
8cc#
8bJ
4a
8b
=
4cc#
8ee
8ddL
8cc#
8bJ
4.a
4.a
!!linebreak:original
=||
*M12/8
4a
8b
4cc#
8ee
8ddL
8cc#
8bJ
4.a
=
4a
8b
4cc#
8ee
4.ff#
4.ee
=
4a
8b
4cc#
8ee
8ddL
8cc#
8bJ
4a
8b
=
4cc#
8ee
8ddL
8cc#
8bJ
4.a
4.a
=||
4ff#
8ee
4cc#
8ee
8ddL
8cc#
8bJ
4.a
!!linebreak:original
=
4ff#
8ee
4cc#
8ee
4.ff#
4.ee
=
4ff#
8ee
4cc#
8ee
8ddL
8cc#
8bJ
4a
8b
=
4cc#
8ee
8ddL
8cc#
8bJ
4.a
4.a
=||
*M12/8
4a
8b
4cc#
8ee
8ddL
8cc#
8bJ
4.a
=
4a
8b
4cc#
8ee
4.ff#
4.ee
!!linebreak:original
=
4a
8b
4cc#
8ee
8ddL
8cc#
8bJ
4a
8b
=
4cc#
8ee
8ddL
8cc#
8bJ
4.a
4.a
=||
*M12/8
4a
8b
4cc#
8ee
8ddL
8cc#
8bJ
4.a
=
4a
8b
4cc#
8ee
4.ff#
4.ee
!!linebreak:original
=
4a
8b
4cc#
8ee
8ddL
8cc#
8bJ
4a
8b
=
4cc#
8ee
8ddL
8cc#
8bJ
4.a
4.a
=||
4ff#
8ee
4cc#
8ee
8ddL
8cc#
8bJ
4.a
=
4ff#
8ee
4cc#
8ee
4.ff#
4.ee
=
4ff#
8ee
4cc#
8ee
8ddL
8cc#
8bJ
4a
8b
!!linebreak:original
=
4cc#
8ee
8ddL
8cc#
8bJ
4.a
4.a
=||
*-
